X:730
T:The Chorus Jig
M:C|
K:D
AG|F2 DF AB AG|FA DF A2 d2|D3 F AB AF|GF EF G2 :|
K:G
Bc|dB cA BG FG|Ad ^cd A2 B=c|dB cA BG FG|Ac BA G2 Bc|
dB cA BG FG|AB cd ef ge|dB cA BG FG|Ac BA G2 ||
K:D
ag|fd dd fd dd|fd fg ab ag|gd dd fd dd|=cd ef g2 :|
K:G
Bc|dB cA BG FG|Ad ^cd A2 B=c|dB cA BG FG|Ac BA G2 Bc|
d2 ((3cdc) BG FG|AB cd ef ge|dB cA BG FG|Ac BA G2 |>|
